icons/home-quarantine.svg

<svg width="48" height="48" viewBox="0 0 48 48" fill="none" xmlns="http://www.w3.org/2000/svg">
<path fill-rule="evenodd" clip-rule="evenodd" d="M24 16C22.8954 16 22 16.8954 22 18C22 19.1046 22.8954 20 24 20C25.1046 20 26 19.1046 26 18C26 16.8954 25.1046 16 24 16ZM20 18C20 15.7909 21.7909 14 24 14C26.2091 14 28 15.7909 28 18C28 20.2091 26.2091 22 24 22C21.7909 22 20 20.2091 20 18Z" fill="black"/>
<path fill-rule="evenodd" clip-rule="evenodd" d="M19.0677 25.9495C20.3838 24.6961 22.1588 24 24 24C25.8412 24 27.6162 24.6961 28.9323 25.9495C30.25 27.2045 31 28.9174 31 30.7143V34.1429C31 34.6951 30.5523 35.1429 30 35.1429H28.4402L27.385 41.1724C27.3013 41.6509 26.8858 42 26.4 42H21.6C21.1142 42 20.6987 41.6509 20.615 41.1724L19.5598 35.1429H18C17.4477 35.1429 17 34.6951 17 34.1429V30.7143C17 28.9174 17.75 27.2045 19.0677 25.9495ZM24 26C22.6586 26 21.3814 26.5079 20.447 27.3978C19.5143 28.2861 19 29.4802 19 30.7143V33.1429H20.4C20.8858 33.1429 21.3013 33.492 21.385 33.9705L22.4402 40H25.5598L26.615 33.9705C26.6987 33.492 27.1142 33.1429 27.6 33.1429H29V30.7143C29 29.4802 28.4857 28.2861 27.553 27.3978C26.6186 26.5079 25.3414 26 24 26Z" fill="black"/>
<path fill-rule="evenodd" clip-rule="evenodd" d="M23.3979 6.20156C23.7543 5.9328 24.2457 5.93281 24.6021 6.2016L41.0324 18.5927C41.0596 18.6132 41.0858 18.6351 41.1107 18.6583C41.6384 19.1482 41.9563 19.823 41.9983 20.5417C41.9994 20.5611 42 20.5806 42 20.6V39.5221L42 39.5252C41.998 40.1809 41.7366 40.8092 41.2729 41.2729C40.8092 41.7366 40.1809 41.998 39.5252 42L39.5221 42H8.47787L8.47481 42C7.81907 41.998 7.19076 41.7366 6.72707 41.2729C6.26339 40.8092 6.00201 40.1809 6 39.5252L6 39.5221V20.5985C6 20.579 6.00057 20.5596 6.0017 20.5402C6.04366 19.8214 6.36165 19.1467 6.88926 18.6568C6.91424 18.6336 6.94039 18.6117 6.96761 18.5912L23.3979 6.20156ZM8.22087 20.151C8.09409 20.2815 8.01597 20.4519 8 20.6335V39.5202C8.00068 39.6472 8.05144 39.7689 8.14128 39.8587C8.23117 39.9486 8.35288 39.9994 8.47997 40C8.47966 40 8.48029 40 8.47997 40L39.5191 40C39.5188 40 39.5194 40 39.5191 40C39.6462 39.9994 39.7688 39.9486 39.8587 39.8587C39.9486 39.7688 39.9994 39.6471 40 39.52C40 39.5197 40 39.5203 40 39.52V20.635C39.984 20.4534 39.9059 20.283 39.7791 20.1525L24 8.25247L8.22087 20.151Z" fill="black"/>
</svg>

<svg
  xmlns="http://www.w3.org/2000/svg"
  width="24"
  height="24"
  viewBox="0 0 24 24"
  fill="none"
  stroke="currentColor"
  stroke-width="2"
  stroke-linecap="round"
  stroke-linejoin="round"
>
  <path
    fill-rule="evenodd"
    d="M24 16a2 2 0 1 0 0 4 2 2 0 0 0 0-4m-4 2a4 4 0 1 1 8 0 4 4 0 0 1-8 0"
    clip-rule="evenodd"
  />
  <path
    fill-rule="evenodd"
    d="M19.068 25.95A7.16 7.16 0 0 1 24 24c1.841 0 3.616.696 4.932 1.95C30.25 27.205 31 28.917 31 30.714v3.429a1 1 0 0 1-1 1h-1.56l-1.055 6.03A1 1 0 0 1 26.4 42h-4.8a1 1 0 0 1-.985-.828l-1.055-6.03H18a1 1 0 0 1-1-1v-3.428c0-1.797.75-3.51 2.068-4.764M24 26a5.16 5.16 0 0 0-3.553 1.398C19.514 28.286 19 29.48 19 30.714v2.429h1.4a1 1 0 0 1 .985.828L22.44 40h3.12l1.055-6.03a1 1 0 0 1 .985-.827H29v-2.429c0-1.234-.514-2.428-1.447-3.316A5.16 5.16 0 0 0 24 26"
    clip-rule="evenodd"
  />
  <path
    fill-rule="evenodd"
    d="M23.398 6.202a1 1 0 0 1 1.204 0l16.43 12.39q.042.032.079.066A2.8 2.8 0 0 1 42 20.6v18.925A2.48 2.48 0 0 1 39.525 42H8.475A2.48 2.48 0 0 1 6 39.525V20.6q0-.03.002-.059c.042-.719.36-1.393.887-1.883a1 1 0 0 1 .079-.066zM8.22 20.15a.8.8 0 0 0-.221.483V39.52a.48.48 0 0 0 .48.48h31.04a.484.484 0 0 0 .48-.48V20.635a.8.8 0 0 0-.22-.483L24 8.253z"
    clip-rule="evenodd"
  />
</svg>
